X: 51
T: Bobbing Joe
B: Playford "The Dancing Master" 4th edition 1657 p.51
S: http://ks.imslp.net/files/imglnks/usimg/4/48/IMSLP337988-PMLP144608-dancing_master_4th_ed.pdf
Z: 2017 John Chambers <jc:trillian.mit.edu>
P: Longways for as many as will.
N: //// used to separate the two columns in the dance description.
L: 1/4
M: 6/4
K: Am
% - - - - - - - - - - - - - - - - - - - - - - - - -
|:\
A2e e2d | e>fg B>AG | A2B c2d | eB2 A3 ::\
Bd2 G2G | Bd2 G2G | A2B c2d | fB2 A3 :|
% - - - - - - - - - - - - - - - - - - - - - - - - -
%%begintext align
%% Lead up forwards and back .| That again
%% ////
%% Set and turn S. .| That again :|
%%endtext
%%sep 2 2 500
%%begintext align
%% First Cu. slip down between the 2. they slipping up .|
%% Then they slip down .| Hands and go round :|
%% ////
%% The first 2. men snap their finger, and change places .|
%% Your We. as much :| Do these two changes to the last,
%% the rest following.
%%endtext
%%sep 2 2 500
%%begintext align
%% Sides all .| That again :|
%% ////
%% Set and turn S. .| That again :|
%%endtext
%%sep 2 2 500
%%begintext align
%% First two on each side, hands ang go back, 
%% meet again .| Cast off and come to your places :|
%% ////
%% First four change places with your own .|
%% Hands and go half round :|
%% These changes to the last.
%%endtext
%%sep 2 2 500
%%begintext align
%% Arms all. . That again.:|
%% ////
%% Set  and turn single .| That again ;|
%%endtext
%%sep 2 2 500
%%begintext align
%% Men back a D. Meet again .| We. as much :|
%% ////
%% First Cu change with the 2. on the same side .|
%% Then change with your own :|
%% These changes to the last.
%%endtext
%%sep 2 2 500
